docs/img/logo.svg

<svg width="204" height="60" viewBox="0 0 204 60" fill="none" xmlns="http://www.w3.org/2000/svg">
<rect width="60" height="60" rx="5" fill="white"/>
<path d="M40.348 29.1719C41.852 29.6839 43.02 30.5159 43.852 31.6679C44.684 32.8199 45.1 34.2599 45.1 35.9879C45.1 39.3799 43.788 41.9879 41.164 43.8119C38.572 45.6039 35.02 46.4999 30.508 46.4999H14.332L21.052 12.8999H35.932C39.324 12.8999 41.932 13.5399 43.756 14.8199C45.612 16.0679 46.54 17.8919 46.54 20.2919C46.54 22.4679 45.964 24.3239 44.812 25.8599C43.692 27.3639 42.204 28.4679 40.348 29.1719ZM25.036 16.7879L22.876 27.5399H32.716C35.436 27.5399 37.58 26.9959 39.148 25.9079C40.748 24.7879 41.548 23.1719 41.548 21.0599C41.548 19.6199 40.972 18.5479 39.82 17.8439C38.7 17.1399 37.068 16.7879 34.924 16.7879H25.036ZM30.844 42.6119C33.884 42.6119 36.22 42.0519 37.852 40.9319C39.516 39.7799 40.348 38.1479 40.348 36.0359C40.348 34.3719 39.756 33.1879 38.572 32.4839C37.42 31.7799 35.676 31.4279 33.34 31.4279H22.108L19.9 42.6119H30.844Z" fill="#481C03"/>
<path d="M41.3596 38.5463L41.15 38.4556L41.15 38.684L41.15 40.455L41.15 40.5536L41.2405 40.5927L46.4195 42.83L41.2412 45.036L41.15 45.0748L41.15 45.174L41.15 47.099L41.15 47.3271L41.3594 47.2367L49.0594 43.9147L49.15 43.8756V43.777V42.017V41.9185L49.0596 41.8793L41.3596 38.5463ZM41.15 38.2611L41.15 38.4111H41.3H49H49.15V38.2611L49.15 34.7631C49.15 33.908 48.9886 33.1476 48.6614 32.4856L48.6611 32.485C48.3268 31.8163 47.8572 31.2959 47.2525 30.9283C46.6465 30.5526 45.9439 30.3671 45.15 30.3671C44.356 30.3671 43.6534 30.5526 43.0475 30.9282C42.4427 31.2959 41.9767 31.8165 41.6496 32.4853C41.315 33.1474 41.15 33.9079 41.15 34.7631L41.15 38.2611ZM43.5206 33.1175L43.5206 33.1175L43.5223 33.1157C43.9144 32.6898 44.4509 32.4711 45.15 32.4711C45.849 32.4711 46.3897 32.6898 46.7895 33.1166C47.183 33.5373 47.387 34.1097 47.387 34.8511V36.3291H42.913L42.913 34.8511C42.913 34.1104 43.1202 33.5382 43.5206 33.1175ZM49.0337 28.6771L49.0337 28.6771L49.0343 28.6749C49.1995 28.0893 49.282 27.4853 49.282 26.8632C49.282 26.1448 49.1736 25.5257 48.9506 25.0106C48.7294 24.4994 48.4272 24.1076 48.0393 23.8462C47.648 23.58 47.2153 23.4462 46.745 23.4462C46.2052 23.4462 45.7592 23.5893 45.4242 23.8911C45.1054 24.1713 44.8713 24.5108 44.7234 24.9078C44.5811 25.2897 44.4401 25.7766 44.3 26.3665L44.3 26.3665L44.2995 26.3689C44.1758 26.9291 44.0541 27.3381 43.936 27.6027C43.8788 27.7197 43.8119 27.7982 43.7397 27.8477C43.6681 27.8967 43.5829 27.9232 43.478 27.9232C43.2681 27.9232 43.1 27.8342 42.9642 27.6371C42.8276 27.4317 42.748 27.0973 42.748 26.6102C42.748 25.9285 42.941 25.2424 43.3335 24.5502L43.4177 24.4016L43.2595 24.3372L41.9065 23.7872L41.7896 23.7397L41.7228 23.8467C41.4932 24.214 41.319 24.6397 41.1984 25.1218C41.0781 25.6032 41.018 26.0958 41.018 26.5992C41.018 27.3175 41.1264 27.9367 41.3493 28.4518L41.3496 28.4525C41.5714 28.9573 41.8778 29.3451 42.2728 29.606C42.6576 29.865 43.0901 29.9942 43.566 29.9942C44.1053 29.9942 44.5538 29.855 44.8956 29.5621L44.8956 29.5621L44.8971 29.5607C45.2231 29.2736 45.4613 28.9304 45.6095 28.5326C45.7518 28.1507 45.8928 27.6638 46.0329 27.0739L46.0331 27.0729C46.1207 26.6935 46.2001 26.3981 46.2713 26.1846L46.2717 26.1832C46.3403 25.9705 46.4304 25.8072 46.5378 25.6872L46.5379 25.6874L46.5431 25.6809C46.6328 25.5688 46.7405 25.5172 46.877 25.5172C47.0661 25.5172 47.2234 25.604 47.3545 25.8093C47.4792 26.016 47.552 26.3561 47.552 26.8522C47.552 27.2904 47.4813 27.7296 47.3392 28.1701C47.1967 28.612 47.0091 28.9894 46.778 29.3045L46.6685 29.4538L46.8373 29.5299L48.1793 30.1349L48.2877 30.1838L48.3601 30.0894C48.6383 29.7261 48.8616 29.2534 49.0337 28.6771Z" fill="#FE9E45" stroke="white" stroke-width="0.3"/>
<path d="M95.42 29.08C96.62 29.46 97.56 30.1 98.24 31C98.92 31.88 99.26 32.97 99.26 34.27C99.26 36.11 98.54 37.53 97.1 38.53C95.68 39.51 93.6 40 90.86 40H80V19H90.26C92.82 19 94.78 19.49 96.14 20.47C97.52 21.45 98.21 22.78 98.21 24.46C98.21 25.48 97.96 26.39 97.46 27.19C96.98 27.99 96.3 28.62 95.42 29.08ZM84.83 22.66V27.61H89.66C90.86 27.61 91.77 27.4 92.39 26.98C93.01 26.56 93.32 25.94 93.32 25.12C93.32 24.3 93.01 23.69 92.39 23.29C91.77 22.87 90.86 22.66 89.66 22.66H84.83ZM90.5 36.34C91.78 36.34 92.74 36.13 93.38 35.71C94.04 35.29 94.37 34.64 94.37 33.76C94.37 32.02 93.08 31.15 90.5 31.15H84.83V36.34H90.5Z" fill="white"/>
<path d="M119.199 36.1V40H102.939V19H118.809V22.9H107.769V27.46H117.519V31.24H107.769V36.1H119.199Z" fill="white"/>
<path d="M127.416 22.96H120.696V19H138.996V22.96H132.276V40H127.416V22.96Z" fill="white"/>
<path d="M162.68 19.0001L153.59 40.0001H148.79L139.73 19.0001H144.98L151.37 34.0001L157.85 19.0001H162.68Z" fill="#FE9E45"/>
<path d="M163.833 19.0001H173.373C175.653 19.0001 177.663 19.4401 179.403 20.3201C181.163 21.1801 182.523 22.4001 183.483 23.9801C184.463 25.5601 184.953 27.4001 184.953 29.5001C184.953 31.6001 184.463 33.4401 183.483 35.0201C182.523 36.6001 181.163 37.8301 179.403 38.7101C177.663 39.5701 175.653 40.0001 173.373 40.0001H163.833V19.0001ZM173.133 36.0101C175.233 36.0101 176.903 35.4301 178.143 34.2701C179.403 33.0901 180.033 31.5001 180.033 29.5001C180.033 27.5001 179.403 25.9201 178.143 24.7601C176.903 23.5801 175.233 22.9901 173.133 22.9901H168.693V36.0101H173.133Z" fill="#FE9E45"/>
<path d="M194.918 40.3601C193.258 40.3601 191.648 40.1401 190.088 39.7001C188.548 39.2401 187.308 38.6501 186.368 37.9301L188.018 34.2701C188.918 34.9301 189.988 35.4601 191.228 35.8601C192.468 36.2601 193.708 36.4601 194.948 36.4601C196.328 36.4601 197.348 36.2601 198.008 35.8601C198.668 35.4401 198.998 34.8901 198.998 34.2101C198.998 33.7101 198.798 33.3001 198.398 32.9801C198.018 32.6401 197.518 32.3701 196.898 32.1701C196.298 31.9701 195.478 31.7501 194.438 31.5101C192.838 31.1301 191.528 30.7501 190.508 30.3701C189.488 29.9901 188.608 29.3801 187.868 28.5401C187.148 27.7001 186.788 26.5801 186.788 25.1801C186.788 23.9601 187.118 22.8601 187.778 21.8801C188.438 20.8801 189.428 20.0901 190.748 19.5101C192.088 18.9301 193.718 18.6401 195.638 18.6401C196.978 18.6401 198.288 18.8001 199.568 19.1201C200.848 19.4401 201.968 19.9001 202.928 20.5001L201.428 24.1901C199.488 23.0901 197.548 22.5401 195.608 22.5401C194.248 22.5401 193.238 22.7601 192.578 23.2001C191.938 23.6401 191.618 24.2201 191.618 24.9401C191.618 25.6601 191.988 26.2001 192.728 26.5601C193.488 26.9001 194.638 27.2401 196.178 27.5801C197.778 27.9601 199.088 28.3401 200.108 28.7201C201.128 29.1001 201.998 29.7001 202.718 30.5201C203.458 31.3401 203.828 32.4501 203.828 33.8501C203.828 35.0501 203.488 36.1501 202.808 37.1501C202.148 38.1301 201.148 38.9101 199.808 39.4901C198.468 40.0701 196.838 40.3601 194.918 40.3601Z" fill="#FE9E45"/>
</svg>

<svg width="204" height="60" fill="none" xmlns="http://www.w3.org/2000/svg"><rect width="60" height="60" rx="5" fill="#fff"/><path d="M40.348 29.172c1.504.512 2.672 1.344 3.504 2.496.832 1.152 1.248 2.592 1.248 4.32 0 3.392-1.312 6-3.936 7.824-2.592 1.792-6.144 2.688-10.656 2.688H14.332l6.72-33.6h14.88c3.392 0 6 .64 7.824 1.92 1.856 1.248 2.784 3.072 2.784 5.472 0 2.176-.576 4.032-1.728 5.568-1.12 1.504-2.608 2.608-4.464 3.312zM25.036 16.788l-2.16 10.752h9.84c2.72 0 4.864-.544 6.432-1.632 1.6-1.12 2.4-2.736 2.4-4.848 0-1.44-.576-2.512-1.728-3.216-1.12-.704-2.752-1.056-4.896-1.056h-9.888zm5.808 25.824c3.04 0 5.376-.56 7.008-1.68 1.664-1.152 2.496-2.784 2.496-4.896 0-1.664-.592-2.848-1.776-3.552-1.152-.704-2.896-1.056-5.232-1.056H22.108L19.9 42.612h10.944z" fill="#481C03"/><path d="M41.36 38.546l-.21-.09v2.098l.09.039 5.18 2.237-5.179 2.206-.091.039v2.252l.21-.09 7.7-3.322.09-.04v-1.957l-.09-.039-7.7-3.333zm-.21-.285v.15h8v-3.648c0-.855-.161-1.615-.489-2.277v-.001a3.725 3.725 0 00-1.409-1.557c-.605-.375-1.308-.56-2.102-.56-.794 0-1.497.185-2.102.56a3.655 3.655 0 00-1.398 1.557c-.335.662-.5 1.423-.5 2.278v3.498zm2.37-5.144h0l.002-.001c.392-.426.929-.645 1.628-.645.699 0 1.24.219 1.64.646.393.42.597.993.597 1.734v1.478h-4.474v-1.478c0-.74.207-1.313.608-1.733zm5.514-4.44h0v-.002c.166-.586.248-1.19.248-1.812 0-.718-.108-1.337-.331-1.852-.222-.512-.524-.903-.912-1.165a2.255 2.255 0 00-1.294-.4c-.54 0-.986.143-1.32.445-.32.28-.554.62-.702 1.017-.142.382-.283.869-.423 1.458h0v.003c-.124.56-.246.97-.364 1.234a.613.613 0 01-.196.245.449.449 0 01-.262.075c-.21 0-.378-.089-.514-.286-.136-.205-.216-.54-.216-1.027 0-.681.193-1.368.586-2.06l.084-.148-.158-.065-1.353-.55-.117-.047-.067.107c-.23.367-.404.793-.525 1.275-.12.481-.18.974-.18 1.477 0 .718.108 1.338.331 1.853h0c.222.505.529.893.924 1.154.385.259.817.388 1.293.388.54 0 .988-.139 1.33-.432h0l.001-.001c.326-.287.564-.63.712-1.028.143-.382.284-.87.424-1.46h0c.088-.38.167-.675.238-.888v-.002c.07-.212.16-.376.267-.496h0l.005-.006a.403.403 0 01.334-.164c.19 0 .346.087.477.292.125.207.198.547.198 1.043 0 .438-.07.878-.213 1.318-.142.442-.33.82-.561 1.134l-.11.15.17.076 1.341.605.109.049.072-.095c.278-.363.502-.836.674-1.412z" fill="#FE9E45" stroke="#fff" stroke-width=".3"/><path d="M95.42 29.08c1.2.38 2.14 1.02 2.82 1.92.68.88 1.02 1.97 1.02 3.27 0 1.84-.72 3.26-2.16 4.26-1.42.98-3.5 1.47-6.24 1.47H80V19h10.26c2.56 0 4.52.49 5.88 1.47 1.38.98 2.07 2.31 2.07 3.99 0 1.02-.25 1.93-.75 2.73-.48.8-1.16 1.43-2.04 1.89zm-10.59-6.42v4.95h4.83c1.2 0 2.11-.21 2.73-.63.62-.42.93-1.04.93-1.86 0-.82-.31-1.43-.93-1.83-.62-.42-1.53-.63-2.73-.63h-4.83zm5.67 13.68c1.28 0 2.24-.21 2.88-.63.66-.42.99-1.07.99-1.95 0-1.74-1.29-2.61-3.87-2.61h-5.67v5.19h5.67zm28.699-.24V40h-16.26V19h15.87v3.9h-11.04v4.56h9.75v3.78h-9.75v4.86h11.43zm8.217-13.14h-6.72V19h18.3v3.96h-6.72V40h-4.86V22.96z" fill="#fff"/><path d="M162.68 19l-9.09 21h-4.8l-9.06-21h5.25l6.39 15 6.48-15h4.83zm1.153 0h9.54c2.28 0 4.29.44 6.03 1.32 1.76.86 3.12 2.08 4.08 3.66.98 1.58 1.47 3.42 1.47 5.52 0 2.1-.49 3.94-1.47 5.52-.96 1.58-2.32 2.81-4.08 3.69-1.74.86-3.75 1.29-6.03 1.29h-9.54V19zm9.3 17.01c2.1 0 3.77-.58 5.01-1.74 1.26-1.18 1.89-2.77 1.89-4.77 0-2-.63-3.58-1.89-4.74-1.24-1.18-2.91-1.77-5.01-1.77h-4.44v13.02h4.44zm21.785 4.35c-1.66 0-3.27-.22-4.83-.66-1.54-.46-2.78-1.05-3.72-1.77l1.65-3.66c.9.66 1.97 1.19 3.21 1.59 1.24.4 2.48.6 3.72.6 1.38 0 2.4-.2 3.06-.6.66-.42.99-.97.99-1.65 0-.5-.2-.91-.6-1.23-.38-.34-.88-.61-1.5-.81-.6-.2-1.42-.42-2.46-.66-1.6-.38-2.91-.76-3.93-1.14-1.02-.38-1.9-.99-2.64-1.83-.72-.84-1.08-1.96-1.08-3.36 0-1.22.33-2.32.99-3.3.66-1 1.65-1.79 2.97-2.37 1.34-.58 2.97-.87 4.89-.87 1.34 0 2.65.16 3.93.48 1.28.32 2.4.78 3.36 1.38l-1.5 3.69c-1.94-1.1-3.88-1.65-5.82-1.65-1.36 0-2.37.22-3.03.66-.64.44-.96 1.02-.96 1.74s.37 1.26 1.11 1.62c.76.34 1.91.68 3.45 1.02 1.6.38 2.91.76 3.93 1.14 1.02.38 1.89.98 2.61 1.8.74.82 1.11 1.93 1.11 3.33 0 1.2-.34 2.3-1.02 3.3-.66.98-1.66 1.76-3 2.34-1.34.58-2.97.87-4.89.87z" fill="#FE9E45"/></svg>
